X: 36175
T: Scotsville
R: reel
M: 4/4
K: Gmajor
|:B2 GB dBec|B2 GB e2 dg|B2 GB dBeB|1 A3B e2 dc:|2 A3B e2 de||
|:gBBd GGdB|gBBd e2 de|1 gBBd GGdB|A2 Bd e2 de:|2 gBBd cgBg|A2 Bd e2 dc||
|:BGGB dBec|BGGB e2 dg|BGGB dBeB|1 A3B e2 dc:|2 A3B e2 de||
|:g2 dg egde|g2 dg e2 de|1 g2 dg egdB|A3B e2 de:|2 gddg cgBg|A3B e2 dc||

